content/hardware/05.pro-solutions/solutions-and-kits/edge-control/tutorials/04.motorized-ball-valve/assets/ec_ard_valve_wires.svg

<svg xmlns="http://www.w3.org/2000/svg" width="1920" height="1080" fill="none" viewBox="0 0 1920 1080"><path fill="#d6eef0" d="M0 0h1920v1080H0z"/><path fill="#4c8ef0" d="M603.891 134c0-8.837 7.163-16 16-16h492.989c8.84 0 16 7.163 16 16v340.741H603.891z"/><path fill="#3e73c4" d="M870.815 134c0-8.837 7.163-16 16-16h226.065c8.84 0 16 7.163 16 16v340.741H870.815z"/><path fill="#427dd6" d="M693.709 118h351.681v356.741H693.709z"/><path fill="#4c8ef0" d="M1075.75 215.408h65.782v160.66h-65.782z"/><path fill="#3e73c3" d="M665.878 236.914h399.753v118.914H665.878zM708.889 474.741h67.047v61.987h-67.047z"/><path fill="#427dd6" d="M589.976 215.408h65.782v160.66h-65.782z"/><path fill="#3e73c3" d="M870.815 474.741h247.948v74.637H870.815z"/><path fill="#427dd6" d="M612.746 575.945h258.069V474.741h-46.174v56.927H662.083v-56.927h-49.337z"/><path fill="#2b322d" d="M935.332 474.741h120.179v46.806H935.332z"/><path stroke="#b8babb" stroke-width="24" d="M995 522v170c0 17.673 14.33 32 32 32h196"/><path stroke="#d74b4b" stroke-width="8" d="M1223 716h60.35a8 8 0 0 0 8-8v-22a8 8 0 0 1 8-8H1350"/><path stroke="#efad0a" stroke-width="8" d="M1223 732h60.09c4.41 0 8 3.582 8 8v20.686c0 4.419 3.58 8 8 8h50.41"/><path fill="#ddb144" d="M651.963 575.945h179.636v31.626H651.963z"/><path fill="#ae934e" d="M669.673 607.571h144.215v31.626H669.673z"/><circle cx="742.413" cy="790.369" r="171.413" fill="#ddb144"/><circle cx="741.781" cy="789.737" r="139.154" fill="#ae934e"/><circle cx="742.413" cy="790.369" r="84.125" fill="#d6eef0"/><path stroke="#296fd7" stroke-width="8" d="M1223 724h125"/><path fill="#000" d="M1381.27 767.707h6.3v8.602q-1.545.504-2.97.714c-.95.141-1.97.211-3.07.211q-3.9 0-6-2.296c-1.41-1.54-2.11-3.708-2.11-6.504 0-2.758.79-4.914 2.38-6.469 1.58-1.563 3.77-2.344 6.55-2.344 1.79 0 3.48.344 5.08 1.031l-.98 2.332q-2.085-.96-4.17-.961c-1.83 0-3.28.575-4.34 1.723q-1.59 1.723-1.59 4.711c0 2.094.47 3.688 1.43 4.781.96 1.086 2.34 1.629 4.13 1.629q1.365 0 2.91-.34v-4.418h-3.55zm26.2 9.293h-3.43l-8.43-13.652h-.09l.06.761c.11 1.453.16 2.782.16 3.985V777h-2.54v-17.133h3.4l8.4 13.582h.07q-.03-.269-.09-1.957a62 62 0 0 1-.07-2.648v-8.977h2.56zm19.96-8.73c0 2.828-.79 4.992-2.36 6.492q-2.355 2.238-6.78 2.238h-4.79v-17.133h5.29c2.73 0 4.85.735 6.37 2.203 1.51 1.469 2.27 3.535 2.27 6.2m-2.95.093q0-6.152-5.76-6.152h-2.42v12.434h1.99c4.12 0 6.19-2.094 6.19-6.282M1381.55 717.023c-1.61 0-2.87.571-3.8 1.711q-1.38 1.711-1.38 4.723c0 2.102.44 3.691 1.33 4.77s2.17 1.617 3.85 1.617c.73 0 1.43-.071 2.11-.211.68-.149 1.39-.336 2.12-.563v2.403c-1.34.507-2.87.761-4.57.761-2.51 0-4.43-.757-5.78-2.273q-2.01-2.285-2.01-6.527c0-1.782.32-3.34.97-4.676.66-1.336 1.6-2.36 2.84-3.07 1.23-.711 2.68-1.067 4.34-1.067q2.625 0 4.86 1.102l-1.01 2.332c-.58-.274-1.19-.512-1.84-.715a6.5 6.5 0 0 0-2.03-.317m9.42 14.977v-17.133h2.8v14.731h7.26V732zm29.72-8.59q0 4.183-2.1 6.504-2.085 2.32-5.91 2.32-3.885 0-5.97-2.296-2.07-2.31-2.07-6.551c0-2.828.69-5 2.08-6.516 1.4-1.516 3.39-2.273 5.98-2.273 2.55 0 4.51.769 5.91 2.308 1.39 1.539 2.08 3.707 2.08 6.504m-13.08 0c0 2.11.43 3.711 1.28 4.805.85 1.086 2.11 1.629 3.79 1.629 1.66 0 2.91-.539 3.76-1.617.85-1.079 1.27-2.684 1.27-4.817q0-3.152-1.26-4.781T1412.7 717q-2.52 0-3.81 1.629c-.85 1.086-1.28 2.68-1.28 4.781m28.14 3.938q0 2.284-1.65 3.586-1.65 1.3-4.56 1.3c-1.94 0-3.52-.3-4.76-.902v-2.648q1.17.55 2.49.867t2.46.316c1.11 0 1.92-.211 2.45-.633s.79-.988.79-1.699q0-.96-.72-1.629-.735-.667-3-1.582c-1.57-.633-2.67-1.355-3.31-2.168q-.96-1.219-.96-2.929c0-1.43.51-2.555 1.52-3.375 1.02-.821 2.38-1.231 4.09-1.231 1.64 0 3.28.359 4.9 1.078l-.89 2.285q-2.28-.96-4.08-.961c-.9 0-1.59.2-2.06.598-.47.391-.7.91-.7 1.559 0 .445.09.828.28 1.148.19.313.5.61.92.891.43.281 1.21.652 2.33 1.113q1.875.785 2.76 1.465t1.29 1.535c.27.57.41 1.242.41 2.016m14.51 4.652h-9.69v-17.133h9.69v2.367h-6.89v4.664h6.45v2.344h-6.45v5.379h6.89zM1389.47 678.41c0 2.789-.7 4.957-2.09 6.504-1.4 1.547-3.37 2.32-5.92 2.32q-3.885 0-5.97-2.296-2.07-2.31-2.07-6.551c0-2.828.69-5 2.08-6.516 1.4-1.516 3.39-2.273 5.98-2.273q3.825 0 5.91 2.308c1.39 1.539 2.08 3.707 2.08 6.504m-13.08 0c0 2.11.43 3.711 1.28 4.805.85 1.086 2.12 1.629 3.79 1.629 1.66 0 2.92-.539 3.76-1.617.85-1.079 1.28-2.684 1.28-4.817 0-2.101-.43-3.695-1.27-4.781q-1.26-1.629-3.75-1.629-2.52 0-3.81 1.629c-.85 1.086-1.28 2.68-1.28 4.781m29.61-3.363c0 1.789-.59 3.16-1.76 4.113q-1.755 1.43-5.01 1.43h-1.78V687h-2.8v-17.133h4.94q3.21 0 4.8 1.313c1.07.875 1.61 2.164 1.61 3.867m-8.55 3.187h1.49c1.44 0 2.49-.25 3.17-.75.67-.5 1-1.281 1-2.343q0-1.477-.9-2.203c-.6-.485-1.54-.727-2.81-.727h-1.95zm23.16 8.766h-9.69v-17.133h9.69v2.367h-6.89v4.664h6.46v2.344h-6.46v5.379h6.89zm19.49 0h-3.44l-8.42-13.652h-.1l.06.761c.11 1.453.17 2.782.17 3.985V687h-2.55v-17.133h3.4l8.4 13.582h.08c-.02-.179-.05-.832-.1-1.957a62 62 0 0 1-.07-2.648v-8.977h2.57z"/></svg>

<svg width="1920" height="1080" viewBox="0 0 1920 1080" fill="none" xmlns="http://www.w3.org/2000/svg">
<rect width="1920" height="1080" fill="#D6EEF0"/>
<path d="M603.891 134C603.891 125.163 611.054 118 619.891 118H1112.88C1121.72 118 1128.88 125.163 1128.88 134V474.741H603.891V134Z" fill="#4C8EF0"/>
<path d="M870.815 134C870.815 125.163 877.978 118 886.815 118H1112.88C1121.72 118 1128.88 125.163 1128.88 134V474.741H870.815V134Z" fill="#3E73C4"/>
<rect x="693.709" y="118" width="351.681" height="356.741" fill="#427DD6"/>
<rect x="1075.75" y="215.408" width="65.7821" height="160.66" fill="#4C8EF0"/>
<rect x="665.878" y="236.914" width="399.753" height="118.914" fill="#3E73C3"/>
<rect x="708.889" y="474.741" width="67.0472" height="61.987" fill="#3E73C3"/>
<rect x="589.976" y="215.408" width="65.7821" height="160.66" fill="#427DD6"/>
<rect x="870.815" y="474.741" width="247.948" height="74.6374" fill="#3E73C3"/>
<path d="M612.746 575.945H870.815V474.741H824.641V531.668H662.083V474.741H612.746V575.945Z" fill="#427DD6"/>
<rect x="935.332" y="474.741" width="120.179" height="46.8065" fill="#2B322D"/>
<path d="M995 522V692C995 709.673 1009.33 724 1027 724H1223" stroke="#B8BABB" stroke-width="24"/>
<path d="M1223 716H1283.35C1287.77 716 1291.35 712.418 1291.35 708V686C1291.35 681.582 1294.93 678 1299.35 678H1350" stroke="#D74B4B" stroke-width="8"/>
<path d="M1223 732H1283.09C1287.5 732 1291.09 735.582 1291.09 740V760.686C1291.09 765.105 1294.67 768.686 1299.09 768.686H1349.5" stroke="#EFAD0A" stroke-width="8"/>
<rect x="651.963" y="575.945" width="179.636" height="31.626" fill="#DDB144"/>
<rect x="669.673" y="607.571" width="144.215" height="31.626" fill="#AE934E"/>
<circle cx="742.413" cy="790.369" r="171.413" fill="#DDB144"/>
<circle cx="741.781" cy="789.737" r="139.154" fill="#AE934E"/>
<circle cx="742.413" cy="790.369" r="84.1252" fill="#D6EEF0"/>
<path d="M1223 724H1348" stroke="#296FD7" stroke-width="8"/>
<path d="M1381.27 767.707H1387.57V776.309C1386.54 776.645 1385.55 776.883 1384.6 777.023C1383.65 777.164 1382.63 777.234 1381.53 777.234C1378.93 777.234 1376.93 776.469 1375.53 774.938C1374.12 773.398 1373.42 771.23 1373.42 768.434C1373.42 765.676 1374.21 763.52 1375.8 761.965C1377.38 760.402 1379.57 759.621 1382.35 759.621C1384.14 759.621 1385.83 759.965 1387.43 760.652L1386.45 762.984C1385.06 762.344 1383.67 762.023 1382.28 762.023C1380.45 762.023 1379 762.598 1377.94 763.746C1376.88 764.895 1376.35 766.465 1376.35 768.457C1376.35 770.551 1376.82 772.145 1377.78 773.238C1378.74 774.324 1380.12 774.867 1381.91 774.867C1382.82 774.867 1383.79 774.754 1384.82 774.527V770.109H1381.27V767.707ZM1407.47 777H1404.04L1395.61 763.348H1395.52L1395.58 764.109C1395.69 765.562 1395.74 766.891 1395.74 768.094V777H1393.2V759.867H1396.6L1405 773.449H1405.07C1405.05 773.27 1405.02 772.617 1404.98 771.492C1404.93 770.359 1404.91 769.477 1404.91 768.844V759.867H1407.47V777ZM1427.43 768.27C1427.43 771.098 1426.64 773.262 1425.07 774.762C1423.5 776.254 1421.24 777 1418.29 777H1413.5V759.867H1418.79C1421.52 759.867 1423.64 760.602 1425.16 762.07C1426.67 763.539 1427.43 765.605 1427.43 768.27ZM1424.48 768.363C1424.48 764.262 1422.56 762.211 1418.72 762.211H1416.3V774.645H1418.29C1422.41 774.645 1424.48 772.551 1424.48 768.363Z" fill="black"/>
<path d="M1381.55 717.023C1379.94 717.023 1378.68 717.594 1377.75 718.734C1376.83 719.875 1376.37 721.449 1376.37 723.457C1376.37 725.559 1376.81 727.148 1377.7 728.227C1378.59 729.305 1379.87 729.844 1381.55 729.844C1382.28 729.844 1382.98 729.773 1383.66 729.633C1384.34 729.484 1385.05 729.297 1385.78 729.07V731.473C1384.44 731.98 1382.91 732.234 1381.21 732.234C1378.7 732.234 1376.78 731.477 1375.43 729.961C1374.09 728.438 1373.42 726.262 1373.42 723.434C1373.42 721.652 1373.74 720.094 1374.39 718.758C1375.05 717.422 1375.99 716.398 1377.23 715.688C1378.46 714.977 1379.91 714.621 1381.57 714.621C1383.32 714.621 1384.94 714.988 1386.43 715.723L1385.42 718.055C1384.84 717.781 1384.23 717.543 1383.58 717.34C1382.94 717.129 1382.26 717.023 1381.55 717.023ZM1390.97 732V714.867H1393.77V729.598H1401.03V732H1390.97ZM1420.69 723.41C1420.69 726.199 1419.99 728.367 1418.59 729.914C1417.2 731.461 1415.23 732.234 1412.68 732.234C1410.09 732.234 1408.1 731.469 1406.71 729.938C1405.33 728.398 1404.64 726.215 1404.64 723.387C1404.64 720.559 1405.33 718.387 1406.72 716.871C1408.12 715.355 1410.11 714.598 1412.7 714.598C1415.25 714.598 1417.21 715.367 1418.61 716.906C1420 718.445 1420.69 720.613 1420.69 723.41ZM1407.61 723.41C1407.61 725.52 1408.04 727.121 1408.89 728.215C1409.74 729.301 1411 729.844 1412.68 729.844C1414.34 729.844 1415.59 729.305 1416.44 728.227C1417.29 727.148 1417.71 725.543 1417.71 723.41C1417.71 721.309 1417.29 719.715 1416.45 718.629C1415.61 717.543 1414.36 717 1412.7 717C1411.02 717 1409.75 717.543 1408.89 718.629C1408.04 719.715 1407.61 721.309 1407.61 723.41ZM1435.75 727.348C1435.75 728.871 1435.2 730.066 1434.1 730.934C1433 731.801 1431.48 732.234 1429.54 732.234C1427.6 732.234 1426.02 731.934 1424.78 731.332V728.684C1425.56 729.051 1426.39 729.34 1427.27 729.551C1428.15 729.762 1428.97 729.867 1429.73 729.867C1430.84 729.867 1431.65 729.656 1432.18 729.234C1432.71 728.812 1432.97 728.246 1432.97 727.535C1432.97 726.895 1432.73 726.352 1432.25 725.906C1431.76 725.461 1430.76 724.934 1429.25 724.324C1427.68 723.691 1426.58 722.969 1425.94 722.156C1425.3 721.344 1424.98 720.367 1424.98 719.227C1424.98 717.797 1425.49 716.672 1426.5 715.852C1427.52 715.031 1428.88 714.621 1430.59 714.621C1432.23 714.621 1433.87 714.98 1435.49 715.699L1434.6 717.984C1433.08 717.344 1431.72 717.023 1430.52 717.023C1429.62 717.023 1428.93 717.223 1428.46 717.621C1427.99 718.012 1427.76 718.531 1427.76 719.18C1427.76 719.625 1427.85 720.008 1428.04 720.328C1428.23 720.641 1428.54 720.938 1428.96 721.219C1429.39 721.5 1430.17 721.871 1431.29 722.332C1432.54 722.855 1433.46 723.344 1434.05 723.797C1434.64 724.25 1435.07 724.762 1435.34 725.332C1435.61 725.902 1435.75 726.574 1435.75 727.348ZM1450.26 732H1440.57V714.867H1450.26V717.234H1443.37V721.898H1449.82V724.242H1443.37V729.621H1450.26V732Z" fill="black"/>
<path d="M1389.47 678.41C1389.47 681.199 1388.77 683.367 1387.38 684.914C1385.98 686.461 1384.01 687.234 1381.46 687.234C1378.87 687.234 1376.88 686.469 1375.49 684.938C1374.11 683.398 1373.42 681.215 1373.42 678.387C1373.42 675.559 1374.11 673.387 1375.5 671.871C1376.9 670.355 1378.89 669.598 1381.48 669.598C1384.03 669.598 1386 670.367 1387.39 671.906C1388.78 673.445 1389.47 675.613 1389.47 678.41ZM1376.39 678.41C1376.39 680.52 1376.82 682.121 1377.67 683.215C1378.52 684.301 1379.79 684.844 1381.46 684.844C1383.12 684.844 1384.38 684.305 1385.22 683.227C1386.07 682.148 1386.5 680.543 1386.5 678.41C1386.5 676.309 1386.07 674.715 1385.23 673.629C1384.39 672.543 1383.14 672 1381.48 672C1379.8 672 1378.53 672.543 1377.67 673.629C1376.82 674.715 1376.39 676.309 1376.39 678.41ZM1406 675.047C1406 676.836 1405.41 678.207 1404.24 679.16C1403.07 680.113 1401.4 680.59 1399.23 680.59H1397.45V687H1394.65V669.867H1399.59C1401.73 669.867 1403.33 670.305 1404.39 671.18C1405.46 672.055 1406 673.344 1406 675.047ZM1397.45 678.234H1398.94C1400.38 678.234 1401.43 677.984 1402.11 677.484C1402.78 676.984 1403.11 676.203 1403.11 675.141C1403.11 674.156 1402.81 673.422 1402.21 672.938C1401.61 672.453 1400.67 672.211 1399.4 672.211H1397.45V678.234ZM1420.61 687H1410.92V669.867H1420.61V672.234H1413.72V676.898H1420.18V679.242H1413.72V684.621H1420.61V687ZM1440.1 687H1436.66L1428.24 673.348H1428.14L1428.2 674.109C1428.31 675.562 1428.37 676.891 1428.37 678.094V687H1425.82V669.867H1429.22L1437.62 683.449H1437.7C1437.68 683.27 1437.65 682.617 1437.6 681.492C1437.55 680.359 1437.53 679.477 1437.53 678.844V669.867H1440.1V687Z" fill="black"/>
</svg>
